resources/svg/youtube-line.svg

<svg fill="currentColor" viewBox="0 0 24 24" xmlns="http://www.w3.org/2000/svg"><path d="M19.6069 6.99482C19.5307 6.69695 19.3152 6.47221 19.0684 6.40288C18.6299 6.28062 16.501 6 12.001 6C7.50098 6 5.37252 6.28073 4.93225 6.40323C4.68776 6.47123 4.4723 6.69593 4.3951 6.99482C4.2863 7.41923 4.00098 9.19595 4.00098 12C4.00098 14.804 4.2863 16.5808 4.3954 17.0064C4.47126 17.3031 4.68676 17.5278 4.93251 17.5968C5.37252 17.7193 7.50098 18 12.001 18C16.501 18 18.6299 17.7194 19.0697 17.5968C19.3142 17.5288 19.5297 17.3041 19.6069 17.0052C19.7157 16.5808 20.001 14.8 20.001 12C20.001 9.2 19.7157 7.41923 19.6069 6.99482ZM21.5442 6.49818C22.001 8.28 22.001 12 22.001 12C22.001 12 22.001 15.72 21.5442 17.5018C21.2897 18.4873 20.547 19.2618 19.6056 19.5236C17.8971 20 12.001 20 12.001 20C12.001 20 6.10837 20 4.39637 19.5236C3.45146 19.2582 2.70879 18.4836 2.45774 17.5018C2.00098 15.72 2.00098 12 2.00098 12C2.00098 12 2.00098 8.28 2.45774 6.49818C2.71227 5.51273 3.45495 4.73818 4.39637 4.47636C6.10837 4 12.001 4 12.001 4C12.001 4 17.8971 4 19.6056 4.47636C20.5505 4.74182 21.2932 5.51636 21.5442 6.49818ZM10.001 15.5V8.5L16.001 12L10.001 15.5Z"/></svg>

<svg xmlns="http://www.w3.org/2000/svg" viewBox="0 0 24 24" fill="currentColor">
    <g>
        <path fill="none" d="M0 0h24v24H0z"/>
        <path fill-rule="nonzero" d="M19.606 6.995c-.076-.298-.292-.523-.539-.592C18.63 6.28 16.5 6 12 6s-6.628.28-7.069.403c-.244.068-.46.293-.537.592C4.285 7.419 4 9.196 4 12s.285 4.58.394 5.006c.076.297.292.522.538.59C5.372 17.72 7.5 18 12 18s6.629-.28 7.069-.403c.244-.068.46-.293.537-.592C19.715 16.581 20 14.8 20 12s-.285-4.58-.394-5.005zm1.937-.497C22 8.28 22 12 22 12s0 3.72-.457 5.502c-.254.985-.997 1.76-1.938 2.022C17.896 20 12 20 12 20s-5.893 0-7.605-.476c-.945-.266-1.687-1.04-1.938-2.022C2 15.72 2 12 2 12s0-3.72.457-5.502c.254-.985.997-1.76 1.938-2.022C6.107 4 12 4 12 4s5.896 0 7.605.476c.945.266 1.687 1.04 1.938 2.022zM10 15.5v-7l6 3.5-6 3.5z"/>
    </g>
</svg>
